dist/svg/icon-logo-secondary.svg

<svg viewBox="0 0 692 121" xmlns="http://www.w3.org/2000/svg"><g fill="currentColor" fill-rule="nonzero"><path d="M367.84 53.03L375.66 45.65 375.66 23.23 352.2.81 274.02.81 250.57 23.23 250.57 8.29 242.75.81 211.47.81 203.66 8.29 203.66 23.23 188.03 38.18 172.39 23.23 172.39 8.29 164.57.81 133.3.81 125.48 8.29 117.66.81 86.39.81 78.57 8.29 78.57 38.18 39.48.81 8.21.81.38 8.29.38 112.91 8.21 120.38 39.48 120.38 47.29 112.91 47.29 83.02 86.39 120.38 117.66 120.38 125.48 112.91 125.48 53.12 164.57 90.49 164.57 112.91 172.39 120.38 203.66 120.38 211.47 112.91 211.47 90.49 250.57 53.12 250.57 97.96 274.02 120.38 352.2 120.38 375.66 97.96 375.66 75.54 367.84 68.06 328.75 68.06 328.75 75.54 297.48 75.54 297.48 45.65 328.75 45.65 328.75 53.03zM391 3.33L402.49 3.33 407.65 23.33 407.73 23.33 412.89 3.33 424.38 3.33 424.38 33.33 417.04 33.33 417.04 10.54 417 10.54 410.7 33.28 404.7 33.28 398.41 10.54 398.33 10.54 398.33 33.28 391 33.28zM429.23 18.22C429.213269 15.8014893 430.516783 13.5663456 432.63 12.39 434.767578 11.2975633 437.151643 10.777341 439.55 10.88 444.71 10.88 449.7 12.01 449.7 18.18L449.7 27.7C449.557667 29.5994702 449.844764 31.5066156 450.54 33.28L443.37 33.28C443.143457 32.6138552 443.002331 31.9216637 442.95 31.22 441.032489 33.0713431 438.4316 34.0421486 435.77 33.9 431.57 33.9 428.35 31.8 428.35 27.31 428.35 20.31 436.07 20.77 441.02 19.76 442.24 19.47 442.9 19.09 442.9 17.76 442.9 16.12 440.9 15.5 439.46 15.5 437.4 15.5 436.23 16.42 435.89 18.23L429.23 18.22zM438.46 29.5C441.86 29.5 442.99 27.61 442.82 23.08 441.82 23.71 439.97 23.79 438.42 24.25 436.87 24.71 435.48 25.25 435.48 27.02 435.48 28.79 436.83 29.5 438.46 29.5zM466.26 35.21C464.58 39.99 461.94 40.58 457.16 40.58L453.8 40.58 453.8 34.79 456.28 34.79C457.92 34.79 459.13 33.87 459.13 32.36 459.13 31.18 457.75 27.83 457.33 26.66L451.71 11.52 459.26 11.52 463.37 25.7 463.46 25.7 467.57 11.52 474.87 11.52 466.26 35.21zM487.32 10.88C490.403685 10.7869371 493.388325 11.9745425 495.565071 14.1607609 497.741817 16.3469793 498.916452 19.3367481 498.81 22.42 498.81 28.7547061 493.674706 33.89 487.34 33.89 481.005294 33.89 475.87 28.7547061 475.87 22.42 475.755177 19.3413827 476.921539 16.3528808 479.091419 14.1659448 481.2613 11.9790088 484.240578 10.7892842 487.32 10.88zM487.32 28.46C490.67 28.46 491.68 25.23 491.68 22.46 491.68 19.69 490.68 16.38 487.32 16.38 483.96 16.38 483 19.65 483 22.41 483 25.17 484 28.45 487.32 28.45L487.32 28.46zM502.79 11.51L509.71 11.51 509.71 15.33 509.8 15.33C510.799618 12.6236176 513.461306 10.8979973 516.34 11.09 516.904572 11.0841698 517.46804 11.1411874 518.02 11.26L518.02 17.76C517.13782 17.4770048 516.216447 17.3352552 515.29 17.34 513.87278 17.2339725 512.477402 17.7360503 511.452638 18.7207395 510.427874 19.7054287 509.870562 21.0796798 509.92 22.5L509.92 33.28 502.79 33.28 502.79 11.51zM520.91 3.33L527.58 3.33 527.58 10.33C527.58 14.52 525.48 17.67 520.91 18.47L520.91 15.07C522.773646 14.7223152 524.070597 13.018986 523.91 11.13L520.91 11.13 520.91 3.33zM538.35 26.11C538.31142 27.0642106 538.749999 27.975106 539.52 28.54 540.298113 29.0647999 541.221954 29.3307541 542.16 29.3 543.5 29.3 545.52 28.67 545.52 26.99 545.52 25.31 543.25 24.99 542.04 24.68 537.55 23.55 531.93 23.42 531.93 17.55 531.93 12.35 537.59 10.88 541.87 10.88 546.61 10.88 551.69 12.26 551.87 17.88L545.29 17.88C545.365816 17.126643 545.009703 16.3950623 544.37 15.99 543.686316 15.5814449 542.894865 15.3896836 542.1 15.44 540.93 15.44 539.04 15.57 539.04 17.08 539.04 19.08 543.82 19.56 547.09 20.23 551.45 21.11 552.63 24.3 552.63 26.1 552.63 31.93 547.09 33.86 542.19 33.86 536.99 33.86 531.74 32.14 531.53 26.06L538.35 26.11zM583.27 2.7C592.67 2.7 598.04 9.62 598.04 18.3 598.04 26.98 592.67 33.9 583.27 33.9 573.87 33.9 568.5 27 568.5 18.3 568.5 9.6 573.87 2.7 583.27 2.7zM583.27 27.2C588.27 27.2 590.27 22.8 590.27 18.31 590.27 13.82 588.34 9.42 583.27 9.42 578.2 9.42 576.27 13.82 576.27 18.31 576.27 22.8 578.24 27.2 583.27 27.2zM603.52 16.12L600.08 16.12 600.08 11.51 603.52 11.51C603.52 5.26 605.7 3.33 611.79 3.33 612.92 3.33 614.1 3.41 615.23 3.46L615.23 8.46C614.590053 8.37600114 613.945431 8.33258105 613.3 8.33 611.67 8.33 610.66 8.54 610.66 10.51L610.66 11.51 614.94 11.51 614.94 16.12 610.66 16.12 610.66 33.28 603.53 33.28 603.52 16.12zM619 16.12L615.6 16.12 615.6 11.51 619 11.51C619 5.26 621.18 3.33 627.26 3.33 628.39 3.33 629.57 3.41 630.7 3.46L630.7 8.46C630.060042 8.37610727 629.415428 8.33268764 628.77 8.33 627.14 8.33 626.13 8.54 626.13 10.51L626.13 11.51 630.41 11.51 630.41 16.12 626.13 16.12 626.13 33.28 619 33.28 619 16.12zM639.6 8.78L632.5 8.78 632.5 3.33 639.63 3.33 639.6 8.78zM632.47 11.51L639.6 11.51 639.6 33.28 632.5 33.28 632.47 11.51zM658.84 19.48C658.743024 17.6519531 657.188641 16.2449693 655.36 16.33 651.36 16.33 650.75 19.73 650.75 22.75 650.75 25.56 651.97 28.45 654.99 28.45 657.51 28.45 658.72 27.07 659.06 24.72L666 24.72C665.33 30.59 660.88 33.91 655.05 33.91 648.51 33.91 643.64 29.46 643.64 22.75 643.64 15.83 648.04 10.88 655.05 10.88 660.5 10.88 665.24 13.77 665.79 19.48L658.84 19.48zM675.61 24.13C675.74 27.13 677.46 29.13 680.48 29.13 682.199691 29.2487555 683.815919 28.2996682 684.55 26.74L691.22 26.74C689.88 31.74 685.22 33.96 680.4 33.96 673.31 33.96 668.49 29.68 668.49 22.38 668.483458 19.2906243 669.72777 16.330169 671.939439 14.1731325 674.151108 12.0160961 677.141754 10.846204 680.23 10.93 688.03 10.93 691.94 16.8 691.6 24.19L675.61 24.13zM684.46 20.13C684.499453 17.7375221 682.611591 15.756157 680.22 15.68 677.7 15.68 676.07 17.44 675.61 20.13L684.46 20.13zM392.24 56L388.8 56 388.8 51.35 392.24 51.35C392.24 45.1 394.42 43.17 400.5 43.17 401.63 43.17 402.81 43.25 403.94 43.3L403.94 48.3C403.296095 48.2257138 402.64813 48.1923135 402 48.2 400.37 48.2 399.36 48.41 399.36 50.38L399.36 51.38 403.64 51.38 403.64 56 399.36 56 399.36 73.12 392.23 73.12 392.24 56zM416.61 50.72C419.693685 50.6269371 422.678325 51.8145425 424.855071 54.0007609 427.031817 56.1869793 428.206452 59.1767481 428.1 62.26 428.1 68.5974675 422.962468 73.735 416.625 73.735 410.287532 73.735 405.15 68.5974675 405.15 62.26 405.035027 59.1795937 406.202733 56.1894587 408.374831 54.0021975 410.546929 51.8149364 413.528868 50.6264587 416.61 50.72zM416.61 68.3C419.97 68.3 420.97 65.07 420.97 62.3 420.97 59.53 419.97 56.22 416.61 56.22 413.25 56.22 412.29 59.53 412.29 62.3 412.29 65.07 413.3 68.3 416.61 68.3zM432.08 51.35L439 51.35 439 55.17 439.08 55.17C440.083397 52.4620538 442.748603 50.7367909 445.63 50.93 446.194576 50.9240868 446.758053 50.9811053 447.31 51.1L447.31 57.6C446.427859 57.3168409 445.50646 57.1750872 444.58 57.18 443.16278 57.0739725 441.767402 57.5760503 440.742638 58.5607395 439.717874 59.5454287 439.160562 60.9196798 439.21 62.34L439.21 73.12 432.08 73.12 432.08 51.35zM463.2 43.17L487.07 43.17 487.07 49.42 471 49.42 471 54.66 485.68 54.66 485.68 60.66 471 60.66 471 66.36 487.49 66.36 487.49 73.07 463.2 73.07zM505.81 59.32C505.713024 57.4919531 504.158641 56.0849693 502.33 56.17 498.33 56.17 497.72 59.57 497.72 62.59 497.72 65.4 498.94 68.29 501.96 68.29 504.48 68.29 505.69 66.91 506.03 64.56L512.95 64.56C512.28 70.43 507.83 73.75 502 73.75 495.46 73.75 490.59 69.3 490.59 62.59 490.59 55.67 494.99 50.72 502 50.72 507.45 50.72 512.19 53.61 512.74 59.32L505.81 59.32zM526.91 50.72C529.993685 50.6269371 532.978325 51.8145425 535.155071 54.0007609 537.331817 56.1869793 538.506452 59.1767481 538.4 62.26 538.4 68.5974675 533.262468 73.735 526.925 73.735 520.587532 73.735 515.45 68.5974675 515.45 62.26 515.335027 59.1795937 516.502733 56.1894587 518.674831 54.0021975 520.846929 51.8149364 523.828868 50.6264587 526.91 50.72zM526.91 68.3C530.27 68.3 531.27 65.07 531.27 62.3 531.27 59.53 530.27 56.22 526.91 56.22 523.55 56.22 522.59 59.53 522.59 62.3 522.59 65.07 523.59 68.3 526.91 68.3zM542.13 51.35L549 51.35 549 54.35 549.08 54.35C550.634722 52.0591778 553.231517 50.6969861 556 50.72 563.26 50.72 563.84 56.01 563.84 59.15L563.84 73.15 556.71 73.15 556.71 60.41C556.71 58.31 556 56.59 553.15 56.59 550.47 56.59 549.29 58.9 549.29 61.25L549.29 73.12 542.16 73.12 542.13 51.35zM578.95 50.72C582.033685 50.6269371 585.018325 51.8145425 587.195071 54.0007609 589.371817 56.1869793 590.546452 59.1767481 590.44 62.26 590.44 68.5974675 585.302468 73.735 578.965 73.735 572.627532 73.735 567.49 68.5974675 567.49 62.26 567.375027 59.1795937 568.542733 56.1894587 570.714831 54.0021975 572.886929 51.8149364 575.868868 50.6264587 578.95 50.72zM578.95 68.3C582.3 68.3 583.31 65.07 583.31 62.3 583.31 59.53 582.31 56.22 578.95 56.22 575.59 56.22 574.63 59.53 574.63 62.3 574.63 65.07 575.63 68.3 578.95 68.3zM594.17 51.35L601.09 51.35 601.09 54.35 601.18 54.35C602.466216 52.1139337 604.8504 50.7368288 607.43 50.74 610.16 50.74 612.59 51.62 613.76 54.26 615.259245 51.982802 617.835085 50.6494259 620.56 50.74 627.48 50.74 628.24 55.98 628.24 60.14L628.24 73.14 621.1 73.14 621.1 60.33C621.1 57.98 619.97 56.6 618.1 56.6 615.04 56.6 614.75 58.95 614.75 62.47L614.75 73.12 607.62 73.12 607.62 60.75C607.62 58.19 606.91 56.6 604.94 56.6 602.38 56.6 601.29 58.11 601.29 62.51L601.29 73.12 594.16 73.12 594.17 51.35zM640.38 48.62L633.25 48.62 633.25 43.17 640.38 43.17 640.38 48.62zM633.25 51.35L640.38 51.35 640.38 73.12 633.25 73.12 633.25 51.35zM659.6 59.32C659.503024 57.4919531 657.948641 56.0849693 656.12 56.17 652.12 56.17 651.51 59.57 651.51 62.59 651.51 65.4 652.73 68.29 655.75 68.29 658.27 68.29 659.49 66.91 659.82 64.56L666.74 64.56C666.07 70.43 661.62 73.75 655.79 73.75 649.25 73.75 644.38 69.3 644.38 62.59 644.38 55.67 648.78 50.72 655.79 50.72 661.24 50.72 665.98 53.61 666.53 59.32L659.6 59.32zM404.62 82.4C414.02 82.4 419.39 89.32 419.39 98 419.39 106.68 414.02 113.6 404.62 113.6 395.22 113.6 389.85 106.68 389.85 98 389.85 89.32 395.22 82.4 404.62 82.4zM404.62 106.9C409.62 106.9 411.62 102.5 411.62 98.01 411.62 93.52 409.69 89.12 404.62 89.12 399.55 89.12 397.62 93.52 397.62 98.01 397.62 102.5 399.58 106.9 404.62 106.9zM422.89 91.21L429.69 91.21 429.69 93.73 429.77 93.73C431.076974 91.6980173 433.355246 90.5019248 435.77 90.58 442.61 90.58 445.5 96.41 445.5 102.58 445.5 108.24 442.5 113.58 436.31 113.58 433.869833 113.675301 431.542063 112.550774 430.1 110.58L430 110.58 430 120.23 422.87 120.23 422.89 91.21zM429.77 101.86C429.77 105.68 430.86 108.15 434.09 108.15 437.32 108.15 438.37 104.84 438.37 101.86 438.37 99.09 437.37 96.03 434.13 96.03 432.25 96 429.77 97.33 429.77 101.86zM448.88 91.21L455.68 91.21 455.68 93.73 455.76 93.73C457.065579 91.6964939 459.344784 90.4999111 461.76 90.58 468.6 90.58 471.49 96.41 471.49 102.58 471.49 108.24 468.49 113.58 462.3 113.58 459.85946 113.67709 457.530893 112.552179 456.09 110.58L456 110.58 456 120.23 448.87 120.23 448.88 91.21zM455.76 101.86C455.76 105.68 456.85 108.15 460.08 108.15 463.31 108.15 464.36 104.84 464.36 101.86 464.36 99.09 463.31 96.03 460.12 96.03 458.24 96 455.76 97.33 455.76 101.86zM485.28 90.58C489.943849 90.5516673 494.164612 93.3382241 495.970922 97.6381693 497.777232 101.938115 496.812643 106.902922 493.527679 110.213706 490.242715 113.524491 485.285612 114.527923 480.971656 112.755333 476.6577 110.982744 473.838183 106.783927 473.83 102.12 473.724109 99.0438929 474.893362 96.0606268 477.06125 93.8756988 479.229138 91.6907708 482.203158 90.4981959 485.28 90.58zM485.28 108.16C488.64 108.16 489.64 104.93 489.64 102.16 489.64 99.39 488.64 96.08 485.28 96.08 481.92 96.08 480.96 99.39 480.96 102.16 480.96 104.93 482 108.16 485.28 108.16zM499.28 91.21L506.2 91.21 506.2 95 506.28 95C507.279618 92.2936176 509.941306 90.5679973 512.82 90.76 513.384572 90.7541698 513.94804 90.8111874 514.5 90.93L514.5 97.43C513.617859 97.1468409 512.69646 97.0050872 511.77 97.01 510.35278 96.9039725 508.957402 97.4060503 507.932638 98.3907395 506.907874 99.3754287 506.350562 100.74968 506.4 102.17L506.4 113 499.27 113 499.28 91.21zM531.69 95.82L527.29 95.82 527.29 105.72C527.29 107.44 528.29 107.82 529.85 107.82 530.48 107.82 531.07 107.74 531.7 107.74L531.7 113C530.4 113 529.1 113.21 527.8 113.21 521.72 113.21 520.16 111.41 520.16 105.53L520.16 95.82 516.55 95.82 516.55 91.21 520.16 91.21 520.16 84.62 527.29 84.62 527.29 91.21 531.69 91.21 531.69 95.82zM556.94 113L550 113 550 110 549.92 110C548.452397 112.235956 545.964506 113.590599 543.29 113.61 537.04 113.61 535.24 110 535.24 104.3L535.24 91.21 542.37 91.21 542.37 103.84C542.37 106.73 543.59 107.74 545.9 107.74 547.41 107.74 549.8 106.74 549.8 102.87L549.8 91.21 556.93 91.21 556.94 113zM561.71 91.21L568.63 91.21 568.63 94.21 568.72 94.21C570.263387 91.9503224 572.823545 90.5991278 575.56 90.6 582.81 90.6 583.4 95.89 583.4 99.03L583.4 113.03 576.27 113.03 576.27 100.27C576.27 98.17 575.56 96.45 572.71 96.45 570.03 96.45 568.85 98.76 568.85 101.11L568.85 113 561.72 113 561.71 91.21zM595.08 88.48L587.95 88.48 587.95 83 595.08 83 595.08 88.48zM587.95 91.21L595.08 91.21 595.08 113 587.95 113 587.95 91.21zM613.24 95.82L608.84 95.82 608.84 105.72C608.84 107.44 609.84 107.82 611.4 107.82 612.03 107.82 612.62 107.74 613.24 107.74L613.24 113C611.94 113 610.64 113.21 609.34 113.21 603.26 113.21 601.7 111.41 601.7 105.53L601.7 95.82 598.1 95.82 598.1 91.21 601.7 91.21 601.7 84.62 608.83 84.62 608.83 91.21 613.23 91.21 613.24 95.82zM629.34 114.91C627.66 119.69 625.02 120.28 620.24 120.28L616.89 120.28 616.89 114.49 619.37 114.49C621 114.49 622.22 113.57 622.22 112.06 622.22 110.89 620.84 107.53 620.41 106.36L614.79 91.22 622.34 91.22 626.45 105.4 626.53 105.4 630.64 91.22 637.94 91.22 629.34 114.91z"/></g></svg>

<svg viewBox="0 0 692 121" xmlns="http://www.w3.org/2000/svg"><g fill="currentColor" fill-rule="nonzero"><path d="M367.84 53.03l7.82-7.38V23.23L352.2.81h-78.18l-23.45 22.42V8.29L242.75.81h-31.28l-7.81 7.48v14.94l-15.63 14.95-15.64-14.95V8.29L164.57.81H133.3l-7.82 7.48-7.82-7.48H86.39l-7.82 7.48v29.89L39.48.81H8.21L.38 8.29v104.62l7.83 7.47h31.27l7.81-7.47V83.02l39.1 37.36h31.27l7.82-7.47V53.12l39.09 37.37v22.42l7.82 7.47h31.27l7.81-7.47V90.49l39.1-37.37v44.84l23.45 22.42h78.18l23.46-22.42V75.54l-7.82-7.48h-39.09v7.48h-31.27V45.65h31.27v7.38zM391 3.33h11.49l5.16 20h.08l5.16-20h11.49v30h-7.34V10.54H417l-6.3 22.74h-6l-6.29-22.74h-.08v22.74H391zM429.23 18.22a6.62 6.62 0 0 1 3.4-5.83 13.9 13.9 0 0 1 6.92-1.51c5.16 0 10.15 1.13 10.15 7.3v9.52a12.69 12.69 0 0 0 .84 5.58h-7.17a8.32 8.32 0 0 1-.42-2.06 9.6 9.6 0 0 1-7.18 2.68c-4.2 0-7.42-2.1-7.42-6.59 0-7 7.72-6.54 12.67-7.55 1.22-.29 1.88-.67 1.88-2 0-1.64-2-2.26-3.44-2.26-2.06 0-3.23.92-3.57 2.73l-6.66-.01zm9.23 11.28c3.4 0 4.53-1.89 4.36-6.42-1 .63-2.85.71-4.4 1.17-1.55.46-2.94 1-2.94 2.77s1.35 2.48 2.98 2.48zM466.26 35.21c-1.68 4.78-4.32 5.37-9.1 5.37h-3.36v-5.79h2.48c1.64 0 2.85-.92 2.85-2.43 0-1.18-1.38-4.53-1.8-5.7l-5.62-15.14h7.55l4.11 14.18h.09l4.11-14.18h7.3l-8.61 23.69zM487.32 10.88a11.16 11.16 0 0 1 11.49 11.54c0 6.335-5.135 11.47-11.47 11.47-6.335 0-11.47-5.135-11.47-11.47a11.13 11.13 0 0 1 11.45-11.54zm0 17.58c3.35 0 4.36-3.23 4.36-6s-1-6.08-4.36-6.08c-3.36 0-4.32 3.27-4.32 6.03 0 2.76 1 6.04 4.32 6.04v.01zM502.79 11.51h6.92v3.82h.09a6.51 6.51 0 0 1 6.54-4.24 7.61 7.61 0 0 1 1.68.17v6.5a8.79 8.79 0 0 0-2.73-.42 5 5 0 0 0-5.37 5.16v10.78h-7.13V11.51zM520.91 3.33h6.67v7c0 4.19-2.1 7.34-6.67 8.14v-3.4a3.69 3.69 0 0 0 3-3.94h-3v-7.8zM538.35 26.11a2.87 2.87 0 0 0 1.17 2.43 4.46 4.46 0 0 0 2.64.76c1.34 0 3.36-.63 3.36-2.31 0-1.68-2.27-2-3.48-2.31-4.49-1.13-10.11-1.26-10.11-7.13 0-5.2 5.66-6.67 9.94-6.67 4.74 0 9.82 1.38 10 7h-6.58a2 2 0 0 0-.92-1.89 3.94 3.94 0 0 0-2.27-.55c-1.17 0-3.06.13-3.06 1.64 0 2 4.78 2.48 8.05 3.15 4.36.88 5.54 4.07 5.54 5.87 0 5.83-5.54 7.76-10.44 7.76-5.2 0-10.45-1.72-10.66-7.8l6.82.05zM583.27 2.7c9.4 0 14.77 6.92 14.77 15.6s-5.37 15.6-14.77 15.6c-9.4 0-14.77-6.9-14.77-15.6s5.37-15.6 14.77-15.6zm0 24.5c5 0 7-4.4 7-8.89s-1.93-8.89-7-8.89-7 4.4-7 8.89 1.97 8.89 7 8.89zM603.52 16.12h-3.44v-4.61h3.44c0-6.25 2.18-8.18 8.27-8.18 1.13 0 2.31.08 3.44.13v5a15.3 15.3 0 0 0-1.93-.13c-1.63 0-2.64.21-2.64 2.18v1h4.28v4.61h-4.28v17.16h-7.13l-.01-17.16zM619 16.12h-3.4v-4.61h3.4c0-6.25 2.18-8.18 8.26-8.18 1.13 0 2.31.08 3.44.13v5a15.34 15.34 0 0 0-1.93-.13c-1.63 0-2.64.21-2.64 2.18v1h4.28v4.61h-4.28v17.16H619V16.12zm20.6-7.34h-7.1V3.33h7.13l-.03 5.45zm-7.13 2.73h7.13v21.77h-7.1l-.03-21.77zM658.84 19.48a3.33 3.33 0 0 0-3.48-3.15c-4 0-4.61 3.4-4.61 6.42 0 2.81 1.22 5.7 4.24 5.7 2.52 0 3.73-1.38 4.07-3.73H666c-.67 5.87-5.12 9.19-10.95 9.19-6.54 0-11.41-4.45-11.41-11.16 0-6.92 4.4-11.87 11.41-11.87 5.45 0 10.19 2.89 10.74 8.6h-6.95zM675.61 24.13c.13 3 1.85 5 4.87 5a4.18 4.18 0 0 0 4.07-2.39h6.67c-1.34 5-6 7.22-10.82 7.22-7.09 0-11.91-4.28-11.91-11.58a11.43 11.43 0 0 1 11.74-11.45c7.8 0 11.71 5.87 11.37 13.26l-15.99-.06zm8.85-4a4.38 4.38 0 0 0-4.24-4.45c-2.52 0-4.15 1.76-4.61 4.45h8.85zM392.24 56h-3.44v-4.65h3.44c0-6.25 2.18-8.18 8.26-8.18 1.13 0 2.31.08 3.44.13v5a15.34 15.34 0 0 0-1.94-.1c-1.63 0-2.64.21-2.64 2.18v1h4.28V56h-4.28v17.12h-7.13l.01-17.12zM416.61 50.72a11.16 11.16 0 0 1 11.49 11.54c0 6.337-5.138 11.475-11.475 11.475S405.15 68.597 405.15 62.26a11.13 11.13 0 0 1 11.46-11.54zm0 17.58c3.36 0 4.36-3.23 4.36-6s-1-6.08-4.36-6.08c-3.36 0-4.32 3.31-4.32 6.08s1.01 6 4.32 6zM432.08 51.35H439v3.82h.08a6.52 6.52 0 0 1 6.55-4.24 7.6 7.6 0 0 1 1.68.17v6.5a8.78 8.78 0 0 0-2.73-.42 5 5 0 0 0-5.37 5.16v10.78h-7.13V51.35zM463.2 43.17h23.87v6.25H471v5.24h14.68v6H471v5.7h16.49v6.71H463.2zM505.81 59.32a3.33 3.33 0 0 0-3.48-3.15c-4 0-4.61 3.4-4.61 6.42 0 2.81 1.22 5.7 4.24 5.7 2.52 0 3.73-1.38 4.07-3.73h6.92c-.67 5.87-5.12 9.19-10.95 9.19-6.54 0-11.41-4.45-11.41-11.16 0-6.92 4.4-11.87 11.41-11.87 5.45 0 10.19 2.89 10.74 8.6h-6.93zM526.91 50.72a11.16 11.16 0 0 1 11.49 11.54c0 6.337-5.138 11.475-11.475 11.475S515.45 68.597 515.45 62.26a11.13 11.13 0 0 1 11.46-11.54zm0 17.58c3.36 0 4.36-3.23 4.36-6s-1-6.08-4.36-6.08c-3.36 0-4.32 3.31-4.32 6.08s1 6 4.32 6zM542.13 51.35H549v3h.08a8.28 8.28 0 0 1 6.92-3.63c7.26 0 7.84 5.29 7.84 8.43v14h-7.13V60.41c0-2.1-.71-3.82-3.56-3.82-2.68 0-3.86 2.31-3.86 4.66v11.87h-7.13l-.03-21.77zM578.95 50.72a11.16 11.16 0 0 1 11.49 11.54c0 6.337-5.138 11.475-11.475 11.475S567.49 68.597 567.49 62.26a11.13 11.13 0 0 1 11.46-11.54zm0 17.58c3.35 0 4.36-3.23 4.36-6s-1-6.08-4.36-6.08c-3.36 0-4.32 3.31-4.32 6.08s1 6 4.32 6zM594.17 51.35h6.92v3h.09a7.2 7.2 0 0 1 6.25-3.61c2.73 0 5.16.88 6.33 3.52a7.83 7.83 0 0 1 6.8-3.52c6.92 0 7.68 5.24 7.68 9.4v13h-7.14V60.33c0-2.35-1.13-3.73-3-3.73-3.06 0-3.35 2.35-3.35 5.87v10.65h-7.13V60.75c0-2.56-.71-4.15-2.68-4.15-2.56 0-3.65 1.51-3.65 5.91v10.61h-7.13l.01-21.77zM640.38 48.62h-7.13v-5.45h7.13v5.45zm-7.13 2.73h7.13v21.77h-7.13V51.35zM659.6 59.32a3.33 3.33 0 0 0-3.48-3.15c-4 0-4.61 3.4-4.61 6.42 0 2.81 1.22 5.7 4.24 5.7 2.52 0 3.74-1.38 4.07-3.73h6.92c-.67 5.87-5.12 9.19-10.95 9.19-6.54 0-11.41-4.45-11.41-11.16 0-6.92 4.4-11.87 11.41-11.87 5.45 0 10.19 2.89 10.74 8.6h-6.93zM404.62 82.4c9.4 0 14.77 6.92 14.77 15.6s-5.37 15.6-14.77 15.6c-9.4 0-14.77-6.92-14.77-15.6s5.37-15.6 14.77-15.6zm0 24.5c5 0 7-4.4 7-8.89s-1.93-8.89-7-8.89-7 4.4-7 8.89 1.96 8.89 7 8.89zM422.89 91.21h6.8v2.52h.08a6.87 6.87 0 0 1 6-3.15c6.84 0 9.73 5.83 9.73 12 0 5.66-3 11-9.19 11a7.34 7.34 0 0 1-6.21-3h-.1v9.65h-7.13l.02-29.02zm6.88 10.65c0 3.82 1.09 6.29 4.32 6.29 3.23 0 4.28-3.31 4.28-6.29 0-2.77-1-5.83-4.24-5.83-1.88-.03-4.36 1.3-4.36 5.83zM448.88 91.21h6.8v2.52h.08a6.86 6.86 0 0 1 6-3.15c6.84 0 9.73 5.83 9.73 12 0 5.66-3 11-9.19 11a7.33 7.33 0 0 1-6.21-3H456v9.65h-7.13l.01-29.02zm6.88 10.65c0 3.82 1.09 6.29 4.32 6.29 3.23 0 4.28-3.31 4.28-6.29 0-2.77-1.05-5.83-4.24-5.83-1.88-.03-4.36 1.3-4.36 5.83zM485.28 90.58a11.52 11.52 0 1 1-11.45 11.54 11.16 11.16 0 0 1 11.45-11.54zm0 17.58c3.36 0 4.36-3.23 4.36-6s-1-6.08-4.36-6.08c-3.36 0-4.32 3.31-4.32 6.08s1.04 6 4.32 6zM499.28 91.21h6.92V95h.08a6.51 6.51 0 0 1 6.54-4.24 7.61 7.61 0 0 1 1.68.17v6.5a8.78 8.78 0 0 0-2.73-.42 5 5 0 0 0-5.37 5.16V113h-7.13l.01-21.79zM531.69 95.82h-4.4v9.9c0 1.72 1 2.1 2.56 2.1.63 0 1.22-.08 1.85-.08V113c-1.3 0-2.6.21-3.9.21-6.08 0-7.64-1.8-7.64-7.68v-9.71h-3.61v-4.61h3.61v-6.59h7.13v6.59h4.4v4.61zM556.94 113H550v-3h-.08a8 8 0 0 1-6.63 3.61c-6.25 0-8.05-3.61-8.05-9.31V91.21h7.13v12.63c0 2.89 1.22 3.9 3.53 3.9 1.51 0 3.9-1 3.9-4.87V91.21h7.13l.01 21.79zM561.71 91.21h6.92v3h.09a8.28 8.28 0 0 1 6.84-3.61c7.25 0 7.84 5.29 7.84 8.43v14h-7.13v-12.76c0-2.1-.71-3.82-3.56-3.82-2.68 0-3.86 2.31-3.86 4.66V113h-7.13l-.01-21.79zM595.08 88.48h-7.13V83h7.13v5.48zm-7.13 2.73h7.13V113h-7.13V91.21zM613.24 95.82h-4.4v9.9c0 1.72 1 2.1 2.56 2.1.63 0 1.22-.08 1.84-.08V113c-1.3 0-2.6.21-3.9.21-6.08 0-7.64-1.8-7.64-7.68v-9.71h-3.6v-4.61h3.6v-6.59h7.13v6.59h4.4l.01 4.61zM629.34 114.91c-1.68 4.78-4.32 5.37-9.1 5.37h-3.35v-5.79h2.48c1.63 0 2.85-.92 2.85-2.43 0-1.17-1.38-4.53-1.81-5.7l-5.62-15.14h7.55l4.11 14.18h.08l4.11-14.18h7.3l-8.6 23.69z"/></g></svg>
